!!!COM: Ernest Reyer
!!!CNT: Francais
!!!TXO: Francais
!!!OTL: Re/demption
!!!LYR: Louis Bouilhet
!!!ENC: Jacob Pegg
!!!YOR: Romantic French Song 1830-1870 -David Tunley, ed.,
!!!YOR: New York: Garland Publishing, Inc., 1995,
!!!YOR: Vol. 1 - 'Early Romances'
!!!ODT: 1853/
!!NB: Vocal melody and text only encoded.
!!NB: First instance of melodic material only encoded.
**kern	**silbe
*clef G2	*
*k[b-e-a-]	*
*M3/4	*
=1	=1
{4e-	{Je
8g	ne
8g	suis
8.cc	pas
16cc	le
=2	=2
2b-	Christ,
4b-	o^
=3	=3
4.ee-	pa^-
8ee-	-le
8ff	Ma-
8ee-	-de-
=4	=4
(4ee-	-lei-
4dd)}	-ne,}
4r	.
=5	=5
{4cc	{Pour
8cc	que
8cc	tes
8.dd	longs
16cc	che-
=6	=6
(4cc	-veux
8b-)	|
8r	.
4b-	ca-
=7	=7
4.a-	-res-
8a-	-sent
8g	mes
8e-	pieds
=8	=8
2f}	nus;}
8.r	.
{16g	{Je
=9	=9
4.cc	marche
8cc	ain-
8.dd	-si
16dd	que
=10	=10
2ff	toi,
8ee-	dans
8dd	le
=11	=11
2ff	dou-
(8.ee-	-te et
16bn)	la
=12	=12
(4dd	pei-
8cc)}	-ne,}
8r	.
{8cc	{Voy-
8cc	-a-
=13	=13
2dd-	-geur
8cc	e/-
8dd-	-ga-
=14	=14
4.ff	-re/
8ee-	par
8dd-	les
8cc-	che-
=15	=15
2b-	-mins
4a-	per-
=16	=16
4g-}	-dus.}
2r	.
=17	=17
{4dd	{Je
8dd	ne
8dd	te
8dd	dir-
8dd	-ai
=18	=18
2dd	pas
8.dd	les
16dd	pa-
=19	=19
2ee-	-ro-
8.ee-	-les
16ee-	di-
=20	=20
[4ee-	-vi-
8ee-]}	-nes,}
8r	.
{8ee-	{Qu'il
8ee-	je-
=21	=21
2dd-	-tait
8ee-	comme
8ff	un
=22	=22
2cc	bau-
4a-	-me a\
=23	=23
4.a-	tous
8a-	les
8b-	coeurs
8g	souf-
=24	=24
2a-}	-frants,}
4r	.
=25	=25
{8.cc	{Quand,
16cc	sui-
4cc	-vi
8cc	de
8cc	la
=26	=26
2cc	fou-
8cc	-le, il
8cc	mon-
=27	=27
2dd-	-tait
8.dd-	les
16dd-	col-
=28	=28
2ddn	-li-
4ddn}	-nes}
=29	=29
{4ee-	{Ou\
8ee-	qu'il
8ee-	se
8dd	pro-
8ee-	-me-
=30	=30
(4.gg	-nait
8ff)	|
8ee-	pre\s
8dd-	des
=31	=31
2cc	lacs
8b-	trans-
8b-	-pa-
=32	=32
4a-}	-rents.}
2r	.
=33	=33
{8b-	{Je
8b-	n'ai
4cc	pas
8a-	com-
8a-	-me
=34	=34
2.b-	lui,
=35	=35
4b-	cet-
8cc	-te au-
8cc	-re/-
8a-	-o-
8a-	-le
=36	=36
2ee-	pu-
4ee-}	-re,}
=37	=37
{4ee-	{Qui
8cc	d'un
8cc	re-
8ee-	-flet
8ee-	d'en-
=38	=38
(4ee-	haut
4dd-)	|
8r	.
8cc	do-
=39	=39
4.b-	-rait
8b-	ses
8cc	blonds
8b-	che-
=40	=40
2.ee-}	-veux.}
=41	=41
*k[f#c#g#d#a#]	*
{4cc#	{Et
8cc#	je
8cc#	ne
8dd#	por-
8b	-te
=42	=42
2cc#	pas
8.r	.
16cc#	pen-
=43	=43
4.cc#	-due
8cc#	a\
8.dd#	ma
16b	cein-
=44	=44
[4ee	-tu-
8ee]}	-re}
8r	.
8r	.
{8ee	{La
=45	=45
4.dd#	cle/
8cc#	de
8b#	di-
8cc#	-a-
=46	=46
4.ff#	-mant
8dd#	qui
8b	peut
8cc#	t'ou-
=47	=47
2dd#	-vrir
4cc#	les
=48	=48
2b}	cieux.}
4r	.
*-	*-
